X:643
T:The Dawning of the Day
C:O'Carolan
B:O'Neill's 643
Z: 1997 by John Chambers <jc@trillian.mit.edu>
N:"Moderate"
M:C
L:1/8
K:G
D \
|GAGF ~E2D2|Bdedc B2AB/A/|GDGA B2ge/c/|B2A2 G2zD|
|GAGF ~E2D2|Bdedc B2AB/A/|GDGA B2ge/c/|B2~A2 G2z||
(g/f/) \
|edef g2fg|abgf ed2g/f/|edef g2fg|a2gf e2ze|
|fdef g2-g/f/e/d/|BgBg cBAz|GDGA B2ge/c/|B2~A2 G2z|]
